material/.icons/material/server-remove.svg

<svg xmlns="http://www.w3.org/2000/svg" viewBox="0 0 24 24"><path d="M4 4h16a1 1 0 011 1v4a1 1 0 01-1 1H4a1 1 0 01-1-1V5a1 1 0 011-1m5 4h1V6H9v2M5 6v2h2V6H5m5.59 11L8 14.41 9.41 13 12 15.59 14.59 13 16 14.41 13.41 17 16 19.59 14.59 21 12 18.41 9.41 21 8 19.59 10.59 17z"/></svg>

<?xml version="1.0" encoding="UTF-8"?><!DOCTYPE svg PUBLIC "-//W3C//DTD SVG 1.1//EN" "http://www.w3.org/Graphics/SVG/1.1/DTD/svg11.dtd"><svg xmlns="http://www.w3.org/2000/svg" xmlns:xlink="http://www.w3.org/1999/xlink" version="1.1" id="mdi-server-remove" width="24" height="24" viewBox="0 0 24 24"><path d="M4,4H20A1,1 0 0,1 21,5V9A1,1 0 0,1 20,10H4A1,1 0 0,1 3,9V5A1,1 0 0,1 4,4M9,8H10V6H9V8M5,6V8H7V6H5M10.59,17L8,14.41L9.41,13L12,15.59L14.59,13L16,14.41L13.41,17L16,19.59L14.59,21L12,18.41L9.41,21L8,19.59L10.59,17Z" /></svg>
